X:18201
T:Valse  l'envers (F. Paris)
C:F. Paris: Rue de l'oiseau
M:3/4
L:1/4
K:C
eAe-|e3|ded|e3|ged|c2c|cde|d2e|\
eAe-|e3|ded|e3|ged|cde|dcB|1 A>fe:|2 A3||
ABc|cde|e2g|e2d|c2c|cde|d3|\
dcB|ABc|def|g2e|ede|ABc|cd/c/B|AA/B/ c/d/|
